X: 1761
T: An Old fashioned Home Down An Old Country Lane
B: australian traditional tunes wiki
M:2/4
L:1/8
R: Foxtrot
Q: 1/4=100
K:G
V:1 
D|"G"BA GB|"D7"AG FA|"C"GG FE|"G"D3D|"C"EE ^DE|"D7"AG FE|"G"D4-|D3D|
"C"EE ^DE|"D7"AA GE|"G"DD GA|"E7"B3B|"A7"B2AG|FE ^DE|"D7"A4-|A2E^D||
"G"D2GA|B2 ED|"A7"^C2EB|A2E=F|"D7"F2AF|"C"EG FE|"G"D4-|D2E^D|
"G"D2GA|B2ED|"A7"^C2EB|A3^G|A2EF|G2AB|"D7"A4-|A3D|
"G"D2GA|B2cB|"C"AE3-|E3E|"D7"F2=F^F|"C"G2A^A|"B7"B4-|B2^AB|
"C"c2BE|c2BE|"A7"BA GF|E2E=F|"D7"F2ED|c2BA|"G"G4-|G4||
% abcbook-tune_id 6342d53a8334c40ad7f316c8


% abcbook-boost 0
% abcbook-tablature 
% abcbook-transpose 
% abcbook-lastupdated 1665324382287
% abcbook-soundfonts 
% abcbook-repeats 1
% NFF Book 2017

